en/_assets/wiki/svg/column-description.svg

<svg xmlns="http://www.w3.org/2000/svg" xmlns:xlink="http://www.w3.org/1999/xlink" width="16" height="16" class="yc-icon" fill="currentColor" stroke="none" aria-hidden="true"><svg viewBox="0 0 16 16" xmlns="http://www.w3.org/2000/svg"><path fill="#b3b3b3" d="M8 1.82812C4.52148 1.82812 1.70312 4.67188 1.70312 8.125C1.70312 11.6035 4.52148 14.4219 8 14.4219C11.4531 14.4219 14.2969 11.6035 14.2969 8.125C14.2969 4.67188 11.4531 1.82812 8 1.82812ZM8 4.62109C8.58398 4.62109 9.06641 5.10352 9.06641 5.6875C9.06641 6.29688 8.58398 6.75391 8 6.75391C7.39062 6.75391 6.93359 6.29688 6.93359 5.6875C6.93359 5.10352 7.39062 4.62109 8 4.62109ZM9.42188 11.0703C9.42188 11.248 9.26953 11.375 9.11719 11.375H6.88281C6.70508 11.375 6.57812 11.248 6.57812 11.0703V10.4609C6.57812 10.3086 6.70508 10.1562 6.88281 10.1562H7.1875V8.53125H6.88281C6.70508 8.53125 6.57812 8.4043 6.57812 8.22656V7.61719C6.57812 7.46484 6.70508 7.3125 6.88281 7.3125H8.50781C8.66016 7.3125 8.8125 7.46484 8.8125 7.61719V10.1562H9.11719C9.26953 10.1562 9.42188 10.3086 9.42188 10.4609V11.0703Z"></path></svg></svg>

<svg xmlns="http://www.w3.org/2000/svg" width="16" height="16" fill="currentColor" aria-hidden="true" class="yc-icon"><svg xmlns="http://www.w3.org/2000/svg" viewBox="0 0 16 16"><path fill="#b3b3b3" d="M8 1.828c-3.479 0-6.297 2.844-6.297 6.297A6.296 6.296 0 0 0 8 14.422c3.453 0 6.297-2.819 6.297-6.297 0-3.453-2.844-6.297-6.297-6.297Zm0 2.793c.584 0 1.066.483 1.066 1.066 0 .61-.482 1.067-1.066 1.067-.61 0-1.066-.457-1.066-1.066 0-.584.457-1.067 1.066-1.067Zm1.422 6.45a.309.309 0 0 1-.305.304H6.883a.293.293 0 0 1-.305-.305v-.61c0-.151.127-.304.305-.304h.304V8.531h-.304a.293.293 0 0 1-.305-.304v-.61c0-.152.127-.304.305-.304h1.625c.152 0 .305.152.305.304v2.54h.304c.153 0 .305.152.305.304v.61Z"/></svg></svg>
